packages/foundations/assets/icons/functional/images/human/stroller_32.svg

<svg width="32" height="32" viewBox="0 0 32 32" fill="none" xmlns="http://www.w3.org/2000/svg">
<g clip-path="url(#clip0_185_1201)">
<path fill-rule="evenodd" clip-rule="evenodd" d="M22.9938 21.5C25.1995 21.5 26.9876 23.2909 26.9876 25.5C26.9876 27.7091 25.1995 29.5 22.9938 29.5C20.788 29.5 18.9999 27.7091 18.9999 25.5C18.9999 23.2909 20.788 21.5 22.9938 21.5ZM12.0106 21.5C14.2164 21.5 16.0045 23.2909 16.0045 25.5C16.0045 27.7091 14.2164 29.5 12.0106 29.5C9.80488 29.5 8.01676 27.7091 8.01676 25.5C8.01676 23.2909 9.80488 21.5 12.0106 21.5ZM22.9938 23.5C21.8909 23.5 20.9968 24.3954 20.9968 25.5C20.9968 26.6046 21.8909 27.5 22.9938 27.5C24.0966 27.5 24.9907 26.6046 24.9907 25.5C24.9907 24.3954 24.0966 23.5 22.9938 23.5ZM12.0106 23.5C10.9078 23.5 10.0137 24.3954 10.0137 25.5C10.0137 26.6046 10.9078 27.5 12.0106 27.5C13.1135 27.5 14.0076 26.6046 14.0076 25.5C14.0076 24.3954 13.1135 23.5 12.0106 23.5ZM19.9984 2.5C25.8788 2.5 29.8632 6.26892 29.9965 11.9067L30 12.2C29.9927 12.9189 29.8862 13.6333 29.6835 14.323C29.318 15.464 28.5412 17.579 28.3685 18C27.7866 19.49 26.3614 20.4785 24.764 20.5H10.2134C8.59489 20.4961 7.15014 19.4829 6.59295 17.961L5.25101 13.808C5.15265 13.5037 5.20556 13.1706 5.39336 12.9119C5.58116 12.6532 5.88119 12.5001 6.20055 12.5H9.027L6.76668 8.961C6.58322 8.67386 6.26635 8.5001 5.92597 8.5H2.99847C2.44703 8.5 2 8.05228 2 7.5C2 6.94772 2.44703 6.49999 2.99847 6.49999H5.92597C6.94771 6.49787 7.89943 7.01974 8.4481 7.883L11.395 12.5H15.95L19.0508 3.184C19.1867 2.77546 19.5684 2.5 19.9984 2.5ZM27.5198 14.5H7.57344L8.48205 17.312C8.75762 18.029 9.44624 18.5016 10.2134 18.5H24.764C25.551 18.4765 26.2455 17.9785 26.5213 17.24C26.6481 16.933 27.1454 15.585 27.5198 14.5ZM20.7143 4.521L18.057 12.5H27.9921C27.9991 12.4 28.0031 12.295 28.0031 12.2C28.0031 6.869 24.3577 4.759 20.7143 4.521Z" fill="#1A1C1F"/>
</g>
<defs>
<clipPath id="clip0_185_1201">
<rect width="32" height="32" fill="white"/>
</clipPath>
</defs>
</svg>

<svg xmlns="http://www.w3.org/2000/svg" width="32" height="32" fill="none"><g clip-path="url(#a)"><path fill="#1A1C1F" fill-rule="evenodd" d="M22.994 21.5a3.997 3.997 0 0 1 3.994 4c0 2.21-1.788 4-3.994 4a3.997 3.997 0 0 1-3.994-4c0-2.21 1.788-4 3.994-4m-10.983 0a3.997 3.997 0 0 1 3.994 4c0 2.21-1.789 4-3.994 4a3.997 3.997 0 0 1-3.994-4c0-2.21 1.788-4 3.994-4m10.983 2a2 2 0 0 0-1.997 2c0 1.105.894 2 1.997 2a2 2 0 0 0 1.997-2c0-1.105-.894-2-1.997-2m-10.983 0a2 2 0 0 0-1.997 2c0 1.105.894 2 1.997 2a2 2 0 0 0 1.997-2c0-1.105-.894-2-1.997-2m7.987-21c5.88 0 9.865 3.769 9.999 9.407L30 12.2a7.8 7.8 0 0 1-.317 2.123A82 82 0 0 1 28.37 18a3.93 3.93 0 0 1-3.605 2.5h-14.55a3.87 3.87 0 0 1-3.621-2.539L5.25 13.808a1 1 0 0 1 .95-1.308h2.826l-2.26-3.539a1 1 0 0 0-.841-.461H2.998a1 1 0 0 1 0-2h2.928a2.98 2.98 0 0 1 2.522 1.383l2.947 4.617h4.555l3.1-9.316a1 1 0 0 1 .948-.684m7.522 12H7.573l.909 2.812c.276.717.964 1.19 1.731 1.188h14.551a1.94 1.94 0 0 0 1.757-1.26c.127-.307.624-1.655.999-2.74m-6.806-9.979L18.057 12.5h9.935c.007-.1.011-.205.011-.3 0-5.331-3.645-7.441-7.289-7.679" clip-rule="evenodd"/></g><defs><clipPath id="a"><path fill="#fff" d="M0 0h32v32H0z"/></clipPath></defs></svg>
